assets/icon-info.svg

<svg width="15" height="14" viewBox="0 0 15 14" fill="none" xmlns="http://www.w3.org/2000/svg">
  <path fill-rule="evenodd" clip-rule="evenodd" d="M14.5 7C14.5 10.866 11.366 14 7.5 14C3.63401 14 0.5 10.866 0.5 7C0.5 3.13401 3.63401 0 7.5 0C11.366 0 14.5 3.13401 14.5 7ZM7.5 13.1737C10.9096 13.1737 13.6737 10.4096 13.6737 7C13.6737 3.59035 10.9096 0.826284 7.5 0.826284C4.09035 0.826284 1.32628 3.59035 1.32628 7C1.32628 10.4096 4.09035 13.1737 7.5 13.1737Z" fill="currentColor" fill-opacity="0.75"/>
  <path fill-rule="evenodd" clip-rule="evenodd" d="M8.19189 3.55353C8.19189 3.16326 7.91572 2.82899 7.50163 2.82899C7.09256 2.82899 6.80626 3.15786 6.80626 3.55353C6.80626 3.94642 7.09511 4.27259 7.50163 4.27259C7.9132 4.27259 8.19189 3.94104 8.19189 3.55353Z" fill="currentColor" fill-opacity="0.75"/>
  <path d="M6.97141 5.72371C6.97141 5.54117 7.11938 5.3932 7.30192 5.3932H7.69854C7.88107 5.3932 8.02905 5.54117 8.02905 5.72371V10.8467C8.02905 11.0292 7.88107 11.1772 7.69854 11.1772H7.30192C7.11938 11.1772 6.97141 11.0292 6.97141 10.8467V5.72371Z" fill="currentColor" fill-opacity="0.75"/>
</svg>

<svg xmlns="http://www.w3.org/2000/svg" fill="none" viewBox="0 0 15 14"><path fill="currentColor" fill-opacity=".75" fill-rule="evenodd" d="M14.5 7a7 7 0 1 1-14 0 7 7 0 0 1 14 0m-7 6.174A6.174 6.174 0 1 0 7.5.826a6.174 6.174 0 0 0 0 12.348" clip-rule="evenodd"/><path fill="currentColor" fill-opacity=".75" fill-rule="evenodd" d="M8.192 3.554c0-.39-.276-.725-.69-.725-.41 0-.696.329-.696.725 0 .392.29.719.696.719.411 0 .69-.332.69-.72" clip-rule="evenodd"/><path fill="currentColor" fill-opacity=".75" d="M6.971 5.724a.33.33 0 0 1 .33-.33H7.7a.33.33 0 0 1 .33.33v5.123a.33.33 0 0 1-.33.33h-.397a.33.33 0 0 1-.33-.33z"/></svg>
